public/src/images/icons/pencil.svg

<svg width="12" height="12" viewBox="0 0 12 12" fill="none" xmlns="http://www.w3.org/2000/svg">
<path d="M11.8125 2.6875L10.5938 3.90625L8.09375 1.40625L9.3125 0.1875C9.4375 0.0625 9.59375 0 9.78125 0C9.96875 0 10.125 0.0625 10.25 0.1875L11.8125 1.75C11.9375 1.875 12 2.03125 12 2.21875C12 2.40625 11.9375 2.5625 11.8125 2.6875ZM0 9.5L7.375 2.125L9.875 4.625L2.5 12H0V9.5Z"/>
</svg>

<svg width="12" height="12" fill="none" xmlns="http://www.w3.org/2000/svg"><path d="M11.813 2.688l-1.22 1.218-2.5-2.5L9.314.188A.636.636 0 019.78 0c.188 0 .344.063.469.188l1.563 1.562a.636.636 0 01.187.469.636.636 0 01-.188.469zM0 9.5l7.375-7.375 2.5 2.5L2.5 12H0V9.5z"/></svg>
